X:110
T:Fiollaigean
R:slip jig
H:A Scots Gaelic song in slip jig time, sung without repeated
H:parts, but works better as a slip jig with repeated parts.
H:Different versions of 1st and 2nd parts included.
Z:id:hn-slipjig-110
M:9/8
L:1/8
K:Edor
~B3 B2E G2A | ~B3 ~e3 edB | ~d3 edB A2d | edB B2A GED :|
|: ~E3 G2d BAG | G2E G2d BAG | G2E G2A B2d | edB B2A GEE :|
|: ~B3 dBB BAG | ~B3 ~e3 edB | ~d3 edB BAd | FED BAd BAF :|
|: ~E3 G2d BAF | ~E3 G2d BAF | ~E3 G2A B2d | eBB B2A GEE :|

